X: 686
T: Jiujiu niao
L: 1/8
M: 2/4
K: A
e eB2 [I:setbarnb 1]| 
df2f | 
e2d e | 
B> FE2 | 
B B/ c/ e e | 
f zB2 | 
F E/ F/ G F | 
E4 |]

@@@ Tune index: 9560
